build/img/benefits/vectors/check.svg

<svg width="28" height="28" viewBox="0 0 28 28" fill="none" xmlns="http://www.w3.org/2000/svg">
<path fill-rule="evenodd" clip-rule="evenodd" d="M14 27.3333C21.3638 27.3333 27.3333 21.3638 27.3333 14C27.3333 6.63616 21.3638 0.666626 14 0.666626C6.63616 0.666626 0.666626 6.63616 0.666626 14C0.666626 21.3638 6.63616 27.3333 14 27.3333ZM20.1227 10.6139C20.4617 10.178 20.3832 9.54972 19.9472 9.21065C19.5113 8.87158 18.883 8.95012 18.5439 9.38606L13.2013 16.2552C13.0825 16.408 12.859 16.4278 12.7152 16.2983L9.3356 13.2567C8.92509 12.8873 8.2928 12.9205 7.92334 13.331C7.55388 13.7415 7.58716 14.3738 7.99767 14.7433L11.3772 17.7849C12.3841 18.6911 13.9484 18.5523 14.78 17.4831L20.1227 10.6139Z" fill="#B0CB1F"/>
</svg>

<svg width="28" height="28" fill="none" xmlns="http://www.w3.org/2000/svg"><path fill-rule="evenodd" clip-rule="evenodd" d="M14 27.333c7.364 0 13.333-5.97 13.333-13.333C27.333 6.636 21.363.667 14 .667 6.636.667.667 6.637.667 14c0 7.364 5.97 13.333 13.333 13.333Zm6.123-16.72a1 1 0 0 0-1.58-1.227l-5.342 6.87a.333.333 0 0 1-.486.042l-3.38-3.041a1 1 0 0 0-1.337 1.486l3.38 3.042a2.333 2.333 0 0 0 3.402-.302l5.343-6.87Z" fill="#B0CB1F"/></svg>
